svg/emoji_u1f533.svg

<svg enable-background="new 0 0 128 128" viewBox="0 0 128 128" xmlns="http://www.w3.org/2000/svg"><linearGradient id="b" x1="64" x2="64" y1="2.5" y2="125.31" gradientUnits="userSpaceOnUse"><stop stop-color="#fff" offset="0"/><stop stop-color="#E0E0E0" offset="1"/></linearGradient><path d="m116 124h-104c-4.42 0-8-3.58-8-8v-104c0-4.42 3.58-8 8-8h104c4.42 0 8 3.58 8 8v104c0 4.42-3.58 8-8 8z" fill="url(#b)"/><g opacity=".2"><path d="m116 7c2.76 0 5 2.24 5 5v104c0 2.76-2.24 5-5 5h-104c-2.76 0-5-2.24-5-5v-104c0-2.76 2.24-5 5-5h104m0-3h-104c-4.42 0-8 3.58-8 8v104c0 4.42 3.58 8 8 8h104c4.42 0 8-3.58 8-8v-104c0-4.42-3.58-8-8-8z" fill="#424242"/></g><linearGradient id="a" x1="64" x2="64" y1="18.864" y2="107.14" gradientUnits="userSpaceOnUse"><stop stop-color="#757575" offset="0"/><stop stop-color="#696969" offset=".3176"/><stop stop-color="#494949" offset=".8922"/><stop stop-color="#424242" offset="1"/></linearGradient><path d="m102 108h-76c-3.31 0-6-2.69-6-6v-76c0-3.31 2.69-6 6-6h76c3.31 0 6 2.69 6 6v76c0 3.31-2.69 6-6 6z" fill="url(#a)"/><g opacity=".2"><path d="m102 23c1.65 0 3 1.35 3 3v76c0 1.65-1.35 3-3 3h-76c-1.65 0-3-1.35-3-3v-76c0-1.65 1.35-3 3-3h76m0-3h-76c-3.31 0-6 2.69-6 6v76c0 3.31 2.69 6 6 6h76c3.31 0 6-2.69 6-6v-76c0-3.31-2.69-6-6-6z" fill="#424242"/></g></svg>

<svg width="128" height="128" style="enable-background:new 0 0 128 128;" xmlns="http://www.w3.org/2000/svg" xmlns:xlink="http://www.w3.org/1999/xlink">
  <g>
    <linearGradient id="SVGID_1_" gradientUnits="userSpaceOnUse" x1="64" x2="64" y1="2.5" y2="125.3121">
      <stop offset="0" style="stop-color:#FFFFFF"/>
      <stop offset="1" style="stop-color:#E0E0E0"/>
    </linearGradient>
    <path d="M116,124H12c-4.42,0-8-3.58-8-8V12c0-4.42,3.58-8,8-8h104c4.42,0,8,3.58,8,8v104 C124,120.42,120.42,124,116,124z" style="fill:url(#SVGID_1_);"/>
    <g style="opacity:0.2;">
      <path d="M116,7c2.76,0,5,2.24,5,5v104c0,2.76-2.24,5-5,5H12c-2.76,0-5-2.24-5-5V12c0-2.76,2.24-5,5-5H116 M116,4H12c-4.42,0-8,3.58-8,8v104c0,4.42,3.58,8,8,8h104c4.42,0,8-3.58,8-8V12C124,7.58,120.42,4,116,4L116,4z" style="fill:#424242;"/>
    </g>
    <linearGradient id="SVGID_2_" gradientUnits="userSpaceOnUse" x1="64" x2="64" y1="18.8639" y2="107.1414">
      <stop offset="0" style="stop-color:#757575"/>
      <stop offset="0.3176" style="stop-color:#696969"/>
      <stop offset="0.8922" style="stop-color:#494949"/>
      <stop offset="1" style="stop-color:#424242"/>
    </linearGradient>
    <path d="M102,108H26c-3.31,0-6-2.69-6-6V26c0-3.31,2.69-6,6-6h76c3.31,0,6,2.69,6,6v76 C108,105.31,105.31,108,102,108z" style="fill:url(#SVGID_2_);"/>
    <g style="opacity:0.2;">
      <path d="M102,23c1.65,0,3,1.35,3,3v76c0,1.65-1.35,3-3,3H26c-1.65,0-3-1.35-3-3V26c0-1.65,1.35-3,3-3H102 M102,20H26c-3.31,0-6,2.69-6,6v76c0,3.31,2.69,6,6,6h76c3.31,0,6-2.69,6-6V26C108,22.69,105.31,20,102,20L102,20z" style="fill:#424242;"/>
    </g>
  </g>
</svg>
